**kern	**text	**kern	**text	**kern	**text	**kern	**text	**kern	**text
*staff5	*staff5	*staff4	*staff4	*staff3	*staff3	*staff2	*staff2	*staff1	*staff1
=1-	=1-	=1-	=1-	=1-	=1-	=1-	=1-	=1-	=1-
*clefF4	*	*clefGv2	*	*clefGv2	*	*clefGv2	*	*clefG2	*
*k[]	*	*k[]	*	*k[]	*	*k[]	*	*k[]	*
*M4/4	*	*M4/4	*	*M4/4	*	*M4/4	*	*M4/4	*
1r	.	1r	.	1r	.	1A/	Con	1r	.
=2	=2	=2	=2	=2	=2	=2	=2	=2	=2
1r	.	1r	.	2r	.	4.e\	l'au-	1r	.
.	.	.	.	.	.	8f\	.	.	.
.	.	.	.	2E/	Con	8g\L	.	.	.
.	.	.	.	.	.	8f\J	.	.	.
.	.	.	.	.	.	8e\L	.	.	.
.	.	.	.	.	.	8d\J	.	.	.
=3	=3	=3	=3	=3	=3	=3	=3	=3	=3
1r	.	1r	.	4.A/	lau-	4c\	.	2r	.
.	.	.	.	.	.	4c\	ra	.	.
.	.	.	.	8B\	.	.	.	.	.
.	.	.	.	8c/L	.	4r	.	2e/	Con
.	.	.	.	8B/J	.	.	.	.	.
.	.	.	.	8A/L	.	[4c\	de	.	.
.	.	.	.	8G/J	.	.	.	.	.
=4	=4	=4	=4	=4	=4	=4	=4	=4	=4
2r	.	1r	.	4F/	.	4c\]	.	4.a/	l'au-
.	.	.	.	4F/	ra	4d\	sos-	.	.
.	.	.	.	.	.	.	.	8b\	.
2AA/	Con	.	.	4r	.	4e\	pir	8cc/L	.
.	.	.	.	.	.	.	.	8b/J	.
.	.	.	.	[4F/	de	[4c\	de	8a/L	.
.	.	.	.	.	.	.	.	8g/J	.
=5	=5	=5	=5	=5	=5	=5	=5	=5	=5
4.A\	l'au-	2r	.	4F/]	.	4c\]	.	4f/	.
.	.	.	.	4D/	sos-	4d\	sos-	4f/	ra
8B\	.	.	.	.	.	.	.	.	.
8c\L	.	2E/	Con	2C/	pir	4G/	pir	4r	.
8B\J	.	.	.	.	.	.	.	.	.
8A\L	.	.	.	.	.	[4c\	Con	[4e/	de
8G\J	.	.	.	.	.	.	.	.	.
=6	=6	=6	=6	=6	=6	=6	=6	=6	=6
4F\	.	4.A/	lau-	2r	.	4c\]	.	4e/]	.
4F\	ra	.	.	.	.	[4A/	lau-	4d/	sos-
.	.	8B\	.	.	.	.	.	.	.
4r	.	8c/L	.	2AA/	Con	8A/L]	.	4e/	pir
.	.	8B/J	.	.	.	8G/J	.	.	.
[4F\	de	8A/L	.	.	.	8A/L	.	4c/	Con
.	.	8G/J	.	.	.	8B/J	.	.	.
=7	=7	=7	=7	=7	=7	=7	=7	=7	=7
4F\]	.	4F/	.	4.A/	l'au-	4c\	.	4.f/	l'au-
4D\	sos-	4F/	ra	.	.	4d\	ra	.	.
.	.	.	.	8B\	.	.	.	8g/	.
2AA/	pir	4r	.	8c/L	.	2e\	de	8a/L	.
.	.	.	.	8B/J	.	.	.	8g/J	.
.	.	[4c\	de	8A/L	.	.	.	8a/L	.
.	.	.	.	8G/J	.	.	.	8b/J	.
=8	=8	=8	=8	=8	=8	=8	=8	=8	=8
4.A\	l'ac-	4c\]	.	4F/	.	4r	.	2cc\	.
.	.	4A/	sos-	4F/	ra	4f\	sos-	.	.
8G\	.	.	.	.	.	.	.	.	.
8F\L	.	2c\	pir	4r	.	2f\	pir	2a/	ra
8E\J	.	.	.	.	.	.	.	.	.
8F\L	.	.	.	[4A/	de	.	.	.	.
8E\J	.	.	.	.	.	.	.	.	.
=9	=9	=9	=9	=9	=9	=9	=9	=9	=9
8D/L	.	4.F/	l'ac-	4A/]	.	2r	.	4r	.
8C/J	.	.	.	.	.	.	.	.	.
8D/L	.	.	.	4A/	sos-	.	.	2a/	de
8C/J	.	8E/	.	.	.	.	.	.	.
8BB-/L	.	8D/L	.	2d\	pir	4r	.	.	.
8AA/J	.	8C/J	.	.	.	.	.	.	.
4BB-/	.	4D/	.	.	.	[4d\	de	4g/	sos-
=10	=10	=10	=10	=10	=10	=10	=10	=10	=10
2AA/	que	2E/	que	1r	.	4d\]	.	1a/	pir
.	.	.	.	.	.	4c\	sos-	.	.
2D\	de	2F/	de	.	.	2d\	pir	.	.
=11	=11	=11	=11	=11	=11	=11	=11	=11	=11
1C/	pian-	4.E/	pian-	4.e\	l'ac-	4.g\	l'ac-	2r	.
.	.	8F/	.	8d\	.	8f\	.	.	.
.	.	2G/	.	8c\L	.	8e\L	.	4.cc\	l'ac-
.	.	.	.	8B\J	.	8d\J	.	.	.
.	.	.	.	[4c\	.	8e\L	.	.	.
.	.	.	.	.	.	8d\J	.	8b\	.
=12	=12	=12	=12	=12	=12	=12	=12	=12	=12
1F\	.	2A/	ti	4c\]	.	8c\L	.	8a/L	.
.	.	.	.	.	.	8B\J	.	8g/J	.
.	.	.	.	4A/	que	8c\L	.	8a/L	.
.	.	.	.	.	.	8B\J	.	8g/J	.
.	.	2r	.	4.c\	l'ac-	8A/L	.	8f/L	.
.	.	.	.	.	.	8G/J	.	8e/J	.
.	.	.	.	.	.	4A/	.	4f/	.
.	.	.	.	8d\	.	.	.	.	.
=13	=13	=13	=13	=13	=13	=13	=13	=13	=13
1C/	ti	4.c\	l'ac-	8e\L	.	4G/	que	2e/	que
.	.	.	.	8d\J	.	.	.	.	.
.	.	.	.	8c\L	.	2G/	de	.	.
.	.	8d\	.	8B\J	.	.	.	.	.
.	.	8e\L	.	8c/L	.	.	.	4r	.
.	.	8d\J	.	8B/J	.	.	.	.	.
.	.	8c\L	.	8A/L	.	[4A/	pian-	4e/	de
.	.	8B\J	.	8G/J	.	.	.	.	.
=14	=14	=14	=14	=14	=14	=14	=14	=14	=14
1r	.	8c/L	.	8A/L	.	8A/L]	.	8f/L	pian-
.	.	8B/J	.	8G/J	.	8B/J	.	8e/J	.
.	.	8A/L	.	8F/L	.	2c\	.	2e/	.
.	.	8G/J	.	8E/J	.	.	.	.	.
.	.	2A/	.	2F/	.	.	.	.	.
.	.	.	.	.	.	8B/L	.	4d/	.
.	.	.	.	.	.	8A/J	.	.	.
=15	=15	=15	=15	=15	=15	=15	=15	=15	=15
1r	.	2.G/	.	2E/	que	2B\	.	1e/	ti
.	.	.	.	2C/	de	4c\	ti	.	.
.	.	4A/	que	.	.	4c\	l'ac-	.	.
=16	=16	=16	=16	=16	=16	=16	=16	=16	=16
1r	.	4B\	de	1G/	pian-	4d\	que	1r	.
.	.	2c\	pian-	.	.	4e\	de	.	.
.	.	.	.	.	.	2d\	pian-	.	.
.	.	4B\	.	.	.	.	.	.	.
=17	=17	=17	=17	=17	=17	=17	=17	=17	=17
1r	.	1c\	ti	2C/	ti	1e\	ti	2r	.
.	.	.	.	2C/	Cres-	.	.	2g/	Cres-
=18	=18	=18	=18	=18	=18	=18	=18	=18	=18
1r	.	2r	.	4F/	ciu-	2c\	Cres-	2a/	ciu-
.	.	.	.	4A/	to&egrave;	.	.	.	.
.	.	4r	.	4G/	nel	2d\	ciu-	2b\	to&egrave;
.	.	[4G/	Cres-	4G/	mio	.	.	.	.
=19	=19	=19	=19	=19	=19	=19	=19	=19	=19
2C/	Cres-	4G/]	.	2E/	pe-	2e\	to&egrave;	4cc\	nel
.	.	2A/	ciu-	.	.	.	.	4cc\	mio
2D\	ciu-	.	.	2D/	to	4f\	nel	2a/	pe-
.	.	4B\	to&egrave;	.	.	4f\	mio	.	.
=20	=20	=20	=20	=20	=20	=20	=20	=20	=20
2E\	to&egrave;	4c\	nel	1r	.	2e\	pe-	4g/	to
.	.	4c\	mio	.	.	.	.	4g/	Cres-
4F\	nel	4.A/	pe-	.	.	2c\	to	[2a/	ciu-
4F\	mio	.	.	.	.	.	.	.	.
.	.	8G/	.	.	.	.	.	.	.
=21	=21	=21	=21	=21	=21	=21	=21	=21	=21
2D\	pe-	2F/	.	2r	.	2d\	Cres-	4a/]	.
.	.	.	.	.	.	.	.	4b\	to&egrave;
2C/	to	2E/	to	2G/	Cres-	2e\	ciu-	4cc\	nel
.	.	.	.	.	.	.	.	4cc\	mio
=22	=22	=22	=22	=22	=22	=22	=22	=22	=22
2r	.	2.D/	Cres-	2A/	ciu-	2f#\	to&egrave;	2a/	pe-
2GG/	Cres-	.	.	2B\	to&egrave;	4g\	nel	2g/	to
.	.	[4E/	ciu-	.	.	4g\	mio	.	.
=23	=23	=23	=23	=23	=23	=23	=23	=23	=23
2AA/	ciu-	4E/]	.	4c\	nel	2e\	pe-	2r	.
.	.	4F#/	to&egrave;	4c\	mio	.	.	.	.
2BB/	to&egrave;	4G/	nel	2B\	pe-	2d\	to	4r	.
.	.	4G/	mio	.	.	.	.	[4g/	Qua-
=24	=24	=24	=24	=24	=24	=24	=24	=24	=24
4C/	nel	2E/	pe-	2G/	to	1r	.	4g/]	.
4C/	mio	.	.	.	.	.	.	2e/	si
2AA/	pe-	2C/	to	2c\	Qua-	.	.	.	.
.	.	.	.	.	.	.	.	4f#/	ter-
=25	=25	=25	=25	=25	=25	=25	=25	=25	=25
1GG/	to	2D/	Qua-	4B\	si	2.d\	Qua-	4g/	re-
.	.	.	.	[4B\	ter-	.	.	4g/	noe-
.	.	4D/	si	8B/L]	.	.	.	2g/	let-
.	.	.	.	8A/J	.	.	.	.	.
.	.	4D/	ter-	[4G/	.	[4B\	si	.	.
=26	=26	=26	=26	=26	=26	=26	=26	=26	=26
4r	.	2E/	re-	8G/L]	.	4B\]	.	2e/	to
.	.	.	.	8F/J	.	.	.	.	.
[4AA/	Qua-	.	.	4E/	.	2c#\	ter-	.	.
8AA/L]	.	4E/	noe-	[2A/	re-	.	.	4r	.
8AA/J	si	.	.	.	.	.	.	.	.
4D\	ter-	[4F/	let-	.	.	[4d\	re-	4d/	Un
=27	=27	=27	=27	=27	=27	=27	=27	=27	=27
4D\	re-	4F/]	.	4A/]	.	4d\]	.	4a/	lau-
4F\	noe-	4D/	to	4A/	noe-	4d\	noe-	4a/	ro
2E\	let-	2r	.	2Bn\	let-	2e\	let-	2g#/	ver-
=28	=28	=28	=28	=28	=28	=28	=28	=28	=28
2AA/	to	2E/	Un	2A/	to	2c#\	to	2a/	de
2r	.	4E/	lau-	2G#/	Un	4r	.	2b\	Un
.	.	4E/	ro	.	.	4e\	Un	.	.
=29	=29	=29	=29	=29	=29	=29	=29	=29	=29
2AA/	Un	2A/	ver-	4A/	lau-	4e\	lau-	4cc\	lau-
.	.	.	.	4E/	ro	4e\	ro	4cc\	ro
4AA/	lau-	2E/	de	2A/	ver-	2e\	ver-	2cc\	ver-
4AA/	ro	.	.	.	.	.	.	.	.
=30	=30	=30	=30	=30	=30	=30	=30	=30	=30
2D\	ver-	2r	.	2F#/	de	2d\	de	2a/	de
2GG/	de	2D/	Un	4r	.	4A/	Un	2r	.
.	.	.	.	4G/	Un	4B\	lau-	.	.
=31	=31	=31	=31	=31	=31	=31	=31	=31	=31
1r	.	4E/	lau-	4C/	lau-	4B\	ro	2g/	Un
.	.	4E/	ro	4C/	ro	2c\	ver-	.	.
.	.	2F/	ver-	2c\	ver-	.	.	4a/	lau-
.	.	.	.	.	.	[4A/	de	4a/	ro
=32	=32	=32	=32	=32	=32	=32	=32	=32	=32
2GG/	Un	2D/	de	2B\	de	4A/]	.	4.g/	ver-
.	.	.	.	.	.	4B\	Un	.	.
.	.	.	.	.	.	.	.	8f/	.
4C/	lau-	2E/	Un	2c\	Un	4G/	lau-	8e/L	.
.	.	.	.	.	.	.	.	8d/J	.
4C/	ro	.	.	.	.	4G/	ro	8c/L	.
.	.	.	.	.	.	.	.	8d/J	.
=33	=33	=33	=33	=33	=33	=33	=33	=33	=33
2C/	ver-	4E/	lau-	4G/	lau-	2c\	ver-	8e/L	.
.	.	.	.	.	.	.	.	8f/J	.
.	.	4E/	ro	4G/	ro	.	.	8g/L	.
.	.	.	.	.	.	.	.	8a/J	.
4GG/	de	2D/	ver-	2G/	ver-	2B\	de	8b\L	.
.	.	.	.	.	.	.	.	8cc\J	.
4GG/	Un	.	.	.	.	.	.	[4dd\	.
=34	=34	=34	=34	=34	=34	=34	=34	=34	=34
4AA/	lau-	2A/	de	2E/	de	4r	.	8dd\L]	.
.	.	.	.	.	.	.	.	8cc\J	.
4AA/	ro	.	.	.	.	4c\	in-	2cc\	.
2GG/	ver-	2r	.	4r	.	2d\	gra-	.	.
.	.	.	.	[4G/	in-	.	.	4b\	.
=35	=35	=35	=35	=35	=35	=35	=35	=35	=35
2C/	de	2r	.	4G/]	.	2e\	toal	2cc\	de
.	.	.	.	2A/	gra-	.	.	.	.
4r	.	2F/	in-	.	.	4f\	suo	2r	.
4D\	in-	.	.	4B\	toal	4f\	cul-	.	.
=36	=36	=36	=36	=36	=36	=36	=36	=36	=36
2E\	gra-	2G/	gra-	4c\	suo	2e\	to-	2r	.
.	.	.	.	4BB/	cul-	.	.	.	.
2F\	toal	2A/	to	2F/	to-	2c\	rein-	4r	.
.	.	.	.	.	.	.	.	[4a/	in-
=37	=37	=37	=37	=37	=37	=37	=37	=37	=37
4D\	suo	4r	.	4F/	re	4.d\	gra-	4a/]	.
4GG/	cul-	2G/	in-	4D/	in-	.	.	2b\	gra-
.	.	.	.	.	.	8c\	toal	.	.
2G\	to-	.	.	2E/	gra-	8B/L	suo	.	.
.	.	.	.	.	.	8A/J	cul-	.	.
.	.	[4c\	gra-	.	.	4G/	to-	[4cc\	toal
=38	=38	=38	=38	=38	=38	=38	=38	=38	=38
2A\	re.	4c\]	.	2F/	toal	2c\	rein-	4cc\]	.
.	.	2F/	toal-	.	.	.	.	2a/	suo
2r	.	.	.	4E/	suo	2d\	gra-	.	.
.	.	[4G/	suo	4G/	cul-	.	.	4b\	cul-
=39	=39	=39	=39	=39	=39	=39	=39	=39	=39
1r	.	4G/]	.	4.C/	to-	2e\	toal	2cc\	to-
.	.	2A/	cul-	.	.	.	.	.	.
.	.	.	.	8D/	.	.	.	.	.
.	.	.	.	2E/	.	2e\	suo	2b\	re.
.	.	[4G/	to-	.	.	.	.	.	.
=40	=40	=40	=40	=40	=40	=40	=40	=40	=40
1r	.	4G/]	.	1D/	re.	1A/	cul-	2r	.
.	.	8F#/L	.	.	.	.	.	.	.
.	.	8E/J	.	.	.	.	.	.	.
.	.	2F#/	.	.	.	.	.	2dd\	Che
=41	=41	=41	=41	=41	=41	=41	=41	=41	=41
2r	.	2G/	re.	2r	.	1B\	tor.	2.dd\	non
2G\	Che	4r	.	2d\	Che	.	.	.	.
.	.	4G/	Che	.	.	.	.	4b\	pur
=42	=42	=42	=42	=42	=42	=42	=42	=42	=42
2.G\	non	4C/	non	4e\	non	2r	.	4cc\	frut-
.	.	4BB/	pur	4d\	pur	.	.	4dd\	to&egrave;
.	.	4C/	frut-	4.c\	frut-	2G/	Che	2ee\	fio-
4E\	pur	4C/	to&egrave;	.	.	.	.	.	.
.	.	.	.	8B\	.	.	.	.	.
=43	=43	=43	=43	=43	=43	=43	=43	=43	=43
4F\	frut-	1D/	fio-	4A/	.	4d\	non	1dd\	re
4G\	to&egrave;	.	.	4G/	to&egrave;	4B\	pur	.	.
2A\	fio-	.	.	4G/	fio-	4d\	frut-	.	.
.	.	.	.	4F#/	.	4d\	to&egrave;	.	.
=44	=44	=44	=44	=44	=44	=44	=44	=44	=44
2G\	re	1G/	de	2G/	re	2d\	fio-	2b\	Che
2E\	Che	.	.	4r	.	2e\	re	4b\	non
.	.	.	.	4C/	Che	.	.	4g/	pur
=45	=45	=45	=45	=45	=45	=45	=45	=45	=45
4D\	non	1r	.	4F/	non	2f\	Che	4a/	frut-
4D\	pur	.	.	4D/	pur	.	.	4b\	to&egrave;
4C/	frut-	.	.	4E/	frut-	4g\	non	2cc\	fio-
4AA/	to&egrave;	.	.	4F/	to&egrave;	4f\	pur	.	.
=46	=46	=46	=46	=46	=46	=46	=46	=46	=46
4.BB/	fio-	1r	.	2G/	fio-	4d\	frut-	2b\	re
.	.	.	.	.	.	4d\	to&egrave;	.	.
8C/	.	.	.	.	.	.	.	.	.
2D\	.	.	.	2F#/	re	2d\	fio-	4.a/	Ne-
.	.	.	.	.	.	.	.	8b\	.
=47	=47	=47	=47	=47	=47	=47	=47	=47	=47
4C/	re	4.G/	Ne-	2r	.	4e\	re	4cc\	.
[4GG/	Ne-	.	.	.	.	[4d\	Ne-	4b\	ga
.	.	8A/	.	.	.	.	.	.	.
8GG/L]	.	8B\L	.	4.G/	Ne-	8d\L]	.	2r	.
8AA/J	.	8c\J	.	.	.	8c\J	.	.	.
4BB/	.	4d\	.	.	.	4B\	.	.	.
.	.	.	.	8F/	.	.	.	.	.
=48	=48	=48	=48	=48	=48	=48	=48	=48	=48
4C/	ga	2e\	ga	4E/	.	4G/	ga	4.g/	Ne-
[4E\	Ne-	.	.	4C/	ga	[4g\	Ne-	.	.
.	.	.	.	.	.	.	.	8a/	.
8E\L]	.	4.E/	Ne-	4.G/	Ne-	8g\L]	.	4b\	.
8D\J	.	.	.	.	.	8f\J	.	.	.
4C/	.	.	.	.	.	4e\	.	4cc\	ga
.	.	8F/	.	8A/	.	.	.	.	.
=49	=49	=49	=49	=49	=49	=49	=49	=49	=49
4BB/	ga	4G/	.	4B\	.	4d\	ga	1r	.
[4C/	Ne-	4E/	.	4G/	ga	[4e\	Ne-	.	.
8C\L]	.	2G/	.	4.c\	Ne-	8e\L]	.	.	.
8D\J	.	.	.	.	.	8d\J	.	.	.
4E\	.	.	.	.	.	[4c\	.	.	.
.	.	.	.	8B\	.	.	.	.	.
=50	=50	=50	=50	=50	=50	=50	=50	=50	=50
4F\	ga	2F/	ga	4.A/	.	4c\]	.	4r	.
[4D\	Ne-	.	.	.	.	4d\	ga	[4a/	Ne-
.	.	.	.	8G/	.	.	.	.	.
8D\L]	.	4r	.	2F/	.	4.A/	Ne-	8a/L]	.
8E\J	.	.	.	.	.	.	.	8g/J	.
4F\	.	[4c\	Ne-	.	.	.	.	4f/	.
.	.	.	.	.	.	8B\	.	.	.
=51	=51	=51	=51	=51	=51	=51	=51	=51	=51
4G\	ga	8c\L]	.	2C/	ga	4.c\	.	4e/	ga
.	.	8d\J	.	.	.	.	.	.	.
[4C/	Ne-	2e\	.	.	.	.	.	4g/	Ne-
.	.	.	.	.	.	8B\	.	.	.
8C/L]	.	.	.	4.E/	Ne-	2A/	.	8a/L	.
8BB/J	.	.	.	.	.	.	.	8b/J	.
4AA/	.	4c\	ga	.	.	.	.	4cc\	.
.	.	.	.	8F/	.	.	.	.	.
=52	=52	=52	=52	=52	=52	=52	=52	=52	=52
4GG/	ga	1r	.	4G/	.	4d\	ga	4b\	ga
[4AA/	Ne-	.	.	4E/	ga	[4c\	Ne-	[4cc\	Ne-
8AA/L]	.	.	.	4.e\	Ne-	8c\L]	.	8cc\L]	.
8BB/J	.	.	.	.	.	8d\J	.	8b\J	.
8C/L	.	.	.	.	.	8e\L	.	[4a/	.
8D/J	.	.	.	8d\	.	8f\J	.	.	.
=53	=53	=53	=53	=53	=53	=53	=53	=53	=53
1E\	.	2r	.	4c\	.	1e\	.	4a/]	.
.	.	.	.	8B/L	.	.	.	8g/L	.
.	.	.	.	8A/J	.	.	.	8f/J	.
.	.	2e\	ma	2B\	.	.	.	2g/	.
=54	=54	=54	=54	=54	=54	=54	=54	=54	=54
2AA/	ga	4.e\	l'om-	4A/	ga	1c#\	ga	1a/	ga
.	.	.	.	4A/	ma	.	.	.	.
.	.	8e\	bra	.	.	.	.	.	.
4r	.	4e\	di	4.A/	l'om-	.	.	.	.
4AA/	ma	4e\	suoi	.	.	.	.	.	.
.	.	.	.	8A/	bra	.	.	.	.
=55	=55	=55	=55	=55	=55	=55	=55	=55	=55
4.D\	l'om-	4d\	ra-	4A/	di	2r	.	2r	.
.	.	4B\	mi	4G/	suoi	.	.	.	.
8D\	bra	.	.	.	.	.	.	.	.
4D\	di	2d\	san-	4F/	ra-	4r	.	2a/	ma
4D\	suoi	.	.	4F/	mi	4d\	ma	.	.
=56	=56	=56	=56	=56	=56	=56	=56	=56	=56
4C/	ra-	4G/	ti	2E/	san-	4.e\	l'om-	4.cc\	l'om-
4AA/	mi	4A/	ma	.	.	.	.	.	.
.	.	.	.	.	.	8e\	bra	8cc\	bra
2C/	san-	4.G/	l'om-	4E/	ti	4e\	di	4cc\	di
.	.	.	.	4C/	ma	4e\	suoi	4cc\	suoi
.	.	8G/	bra	.	.	.	.	.	.
=57	=57	=57	=57	=57	=57	=57	=57	=57	=57
2GG/	ti	4G/	di	4.D/	l'om-	4d\	ra-	4b\	ra-
.	.	4G/	suoi	.	.	4B\	mi	4g/	mi
.	.	.	.	8D/	bra	.	.	.	.
2GG/	ma	4G/	ra-	4D/	di	[2d\	san-	2b\	san-
.	.	4G/	mi	4D/	suoi	.	.	.	.
=58	=58	=58	=58	=58	=58	=58	=58	=58	=58
4.AA/	l'om-	1E/	san-	4A/	ra-	4d\]	.	1a/	ti
.	.	.	.	4E/	mi	8c#\L	.	.	.
8AA/	bra	.	.	.	.	8B\J	.	.	.
4AA/	di	.	.	[2A/	ma	2c#\	.	.	.
4AA/	suoi	.	.	.	.	.	.	.	.
=59	=59	=59	=59	=59	=59	=59	=59	=59	=59
4D\	ra-	2D/	ti	4A/]	.	4d\	ti	1r	.
4GG/	mi	.	.	[4G/	l'om-	4B\	ma	.	.
2D\	san-	4r	.	8G/L]	.	4.A/	l'om-	.	.
.	.	.	.	8F/J	bra	.	.	.	.
.	.	4D/	ma	[4F/	di	.	.	.	.
.	.	.	.	.	.	8B\	bra	.	.
=60	=60	=60	=60	=60	=60	=60	=60	=60	=60
1C/	ti;	4.G/	l'om-	4F/]	.	4c\	di	2r	.
.	.	.	.	8E/L	ra-	4c\	suoi	.	.
.	.	8G/	bra	8D/J	mi	.	.	.	.
.	.	4G/	di	2E/	san-	4c\	ra-	4r	.
.	.	4G/	suoi	.	.	4G/	mi	4e/	ma
=61	=61	=61	=61	=61	=61	=61	=61	=61	=61
1r	.	4F/	ra-	1D/	ti;	1A/	san-	4.f/	l'om-
.	.	4D/	mi	.	.	.	.	.	.
.	.	.	.	.	.	.	.	8f/	bra
.	.	2F/	san-	.	.	.	.	4f/	di
.	.	.	.	.	.	.	.	4f/	suoi
=62	=62	=62	=62	=62	=62	=62	=62	=62	=62
2r	.	2C/	ti;	4r	.	1G/	ti;	4e/	ra-
.	.	.	.	2E/	On-	.	.	4c/	mi
2C/	On-	2G/	On-	.	.	.	.	2e/	san-
.	.	.	.	[4c\	d'io	.	.	.	.
=63	=63	=63	=63	=63	=63	=63	=63	=63	=63
1GG/	d'io	1G/	d'io	4c\]	.	2r	.	1d/	ti;
.	.	.	.	8B/L	.	.	.	.	.
.	.	.	.	8A/J	.	.	.	.	.
.	.	.	.	2B\	.	2d\	On-	.	.
=64	=64	=64	=64	=64	=64	=64	=64	=64	=64
2C/	ri-	2E/	ri-	2G/	ri-	1e\	d'io	1r	.
[2AA/	pre-	[2c\	pre-	[2A/	pre-	.	.	.	.
=65	=65	=65	=65	=65	=65	=65	=65	=65	=65
2AA/]	.	2c\]	.	2A/]	.	2e\	ri-	1r	.
2E\	goA-	2B\	goA-	2G/	goA-	[2e\	pre-	.	.
=66	=66	=66	=66	=66	=66	=66	=66	=66	=66
1F\	mo-	1A/	mo-	4.c\	mo-	2e\]	.	1r	.
.	.	.	.	8B\	.	.	.	.	.
.	.	.	.	[2A/	.	2d\	goA-	.	.
=67	=67	=67	=67	=67	=67	=67	=67	=67	=67
!!linebreak:original
1E\	.	1B\	.	4A/]	.	1e\	mo-	1r	.
.	.	.	.	8G/L	.	.	.	.	.
.	.	.	.	8F/J	.	.	.	.	.
.	.	.	.	2G/	.	.	.	.	.
=68	=68	=68	=68	=68	=68	=68	=68	=68	=68
2AA/	re	2c#\	re	2A/	re	2e\	re	2r	.
2D\	On-	2d\	On-	2A/	On-	2f#\	On-	2a/	On-
=69	=69	=69	=69	=69	=69	=69	=69	=69	=69
1D\	d'io-	1d\	d'io	2A/	d'io	1f\	d'io	1a/	d'io
.	.	.	.	4r	.	.	.	.	.
.	.	.	.	[4D/	On-	.	.	.	.
=70	=70	=70	=70	=70	=70	=70	=70	=70	=70
2GG/	ri-	2d\	ri-	4D/]	.	2g\	ri-	2b\	ri-
.	.	.	.	2G/	d'io	.	.	.	.
[2C/	pre-	[2e\	pre-	.	.	[2g\	pre-	[2cc\	pre-
.	.	.	.	[4E/	ri-	.	.	.	.
=71	=71	=71	=71	=71	=71	=71	=71	=71	=71
2C/]	.	2e\]	.	4E/]	.	2g\]	.	2cc\]	.
.	.	.	.	2G/	pre-	.	.	.	.
2GG/	goA-	2d\	goA-	.	.	2g\	goA-	2b\	goA-
.	.	.	.	4D/	goA-	.	.	.	.
=72	=72	=72	=72	=72	=72	=72	=72	=72	=72
1AA/	mo-	1c\	mo-	2A/	mo-	[1e\	mo-	4.cc\	mo-
.	.	.	.	.	.	.	.	8b\	.
.	.	.	.	2A/	re	.	.	[2a/	.
=73	=73	=73	=73	=73	=73	=73	=73	=73	=73
1E\	.	1B\	.	1r	.	1e\]	.	4a/]	.
.	.	.	.	.	.	.	.	8g/L	.
.	.	.	.	.	.	.	.	8f/J	.
.	.	.	.	.	.	.	.	2g/	.
=74	=74	=74	=74	=74	=74	=74	=74	=74	=74
1AA/	re	1A/	re	2E/	Ch'i-	1c#\	re	1a/	re
.	.	.	.	4E/	vi	.	.	.	.
.	.	.	.	4E/	lo	.	.	.	.
=75	=75	=75	=75	=75	=75	=75	=75	=75	=75
1r	.	2G#/	Ch'i-	2E/	po-	2r	.	2b\	Ch'i-
.	.	4G#/	vi	2E/	se	2e\	Ch'i-	4b\	vi
.	.	4G#/	lo	.	.	.	.	4b\	lo
=76	=76	=76	=76	=76	=76	=76	=76	=76	=76
2E\	Ch'i-	2G/	po-	2r	.	4e\	vi	2b\	po-
.	.	.	.	.	.	4e\	lo	.	.
4E\	vi	2G/	se	2E/	Ch'i-	[2e\	po-	2b\	se
4E\	lo	.	.	.	.	.	.	.	.
=77	=77	=77	=77	=77	=77	=77	=77	=77	=77
1AA/	po-	2A/	Ch'i-	4E/	vi	2e\]	.	2cc\	Ch'i-
.	.	.	.	4E/	lo	.	.	.	.
.	.	4A/	vi	4.E/	po-	2A/	se	4cc\	vi
.	.	4A/	lo	.	.	.	.	4cc\	lo
.	.	.	.	8F/	se	.	.	.	.
=78	=78	=78	=78	=78	=78	=78	=78	=78	=78
1GG/	se	1D/	po-	4.G/	Ch'i-	2r	.	4.b\	po-
.	.	.	.	8A/	vi	.	.	8cc\	.
.	.	.	.	4B\	lo	2d\	Ch'i-	4dd\	.
.	.	.	.	4G/	po-	.	.	4b\	se
=79	=79	=79	=79	=79	=79	=79	=79	=79	=79
2G\	Ch'i-	[1C/	se	2c\	se	4e\	vi	1r	.
.	.	.	.	.	.	4e\	lo	.	.
4G\	vi	.	.	4c\	Ch'i-	4.e\	po-	.	.
4G\	lo	.	.	4c\	vi	.	.	.	.
.	.	.	.	.	.	8f\	.	.	.
=80	=80	=80	=80	=80	=80	=80	=80	=80	=80
4.E\	po-	1C/]	.	2G/	lo	4g\	.	2cc\	Ch'i-
.	.	.	.	.	.	4e\	se	.	.
8F\	.	.	.	.	.	.	.	.	.
4G\	.	.	.	4E/	po-	4r	.	4cc\	vi
4E\	se	.	.	4e\	.	4g\	Ch'i-	4cc\	lo
=81	=81	=81	=81	=81	=81	=81	=81	=81	=81
2G\	Ch'i-	1r	.	4d\	se	4g\	vi	4.b\	po-
.	.	.	.	4d\	Ch'i-	4g\	lo	.	.
.	.	.	.	.	.	.	.	8cc\	.
4G\	vi	.	.	4.B\	vi	4.d\	po-	4dd\	.
4G\	lo	.	.	.	.	.	.	4b\	se
.	.	.	.	8c\	lo	8e\	.	.	.
=82	=82	=82	=82	=82	=82	=82	=82	=82	=82
4.D\	po-	2F/	Ch'i-	2d\	po-	4f\	.	2a/	Ch'i-
.	.	.	.	.	.	4d\	se	.	.
8E\	.	.	.	.	.	.	.	.	.
4F\	.	4A/	vi	4c\	se-	2r	.	4a/	vi
4D\	se	4A/	lo	4F/	Ch'i-	.	.	4a/	lo
=83	=83	=83	=83	=83	=83	=83	=83	=83	=83
2C/	Ch'i-	4.c\	po-	4G/	vi	2g\	Ch'i-	4.e/	po-
.	.	.	.	4G/	lo	.	.	.	.
.	.	8d\	.	.	.	.	.	8f/	.
4C/	vi	4e\	.	2E/	po-	4g\	vi	4g/	.
4C/	lo	4c\	se	.	.	4g\	lo	4e/	se
=84	=84	=84	=84	=84	=84	=84	=84	=84	=84
4.AA/	po-	2r	.	2E/	se	4.c\	po-	2r	.
8BB/	.	.	.	.	.	8d\	.	.	.
4C/	.	4G/	in-	2r	.	4e\	.	4r	.
4AA/	se	8F/L	di	.	.	4c\	se	4a/	in-
.	.	8E/J	lo	.	.	.	.	.	.
=85	=85	=85	=85	=85	=85	=85	=85	=85	=85
2r	.	4D/	suel-	4F/	in-	4r	.	8a/L	di
.	.	.	.	.	.	.	.	8b/J	lo
.	.	4G/	la	8E/L	di	4e\	in-	4cc\	suel-
.	.	.	.	8F/J	lo	.	.	.	.
4GG/	in-	2r	.	4G/	suel-	8d\L	di	4b\	la
.	.	.	.	.	.	8e\J	lo	.	.
8AA/L	di	.	.	4BB/	la	4f\	suel-	4a/	in-
8BB/J	lo	.	.	.	.	.	.	.	.
=86	=86	=86	=86	=86	=86	=86	=86	=86	=86
4C/	suel-	4r	.	4BB/	in-	4e\	la	8g/L	di
.	.	.	.	.	.	.	.	8a/J	lo
4GG/	la	4G/	in-	8D/L	di	4d\	in-	4b-\	suel-
.	.	.	.	8E/J	lo	.	.	.	.
2r	.	8A/L	di	4F/	suel-	8c\L	di	4a/	la
.	.	8B/J	lo	.	.	8d\J	lo	.	.
.	.	[4c\	suel-	4BB/	la	[4e\	suel-	4g/	in-
=87	=87	=87	=87	=87	=87	=87	=87	=87	=87
4AA/	in-	4c\]	.	1r	.	4e\]	.	8e/L	di
.	.	.	.	.	.	.	.	8f/J	lo
8BB/L	di-	4B\	la	.	.	4d\	la	4g/	suel-
8C/J	lo	.	.	.	.	.	.	.	.
4D\	suel-	4A/	in-	.	.	4d\	in-	4f#/	la
4GG/	la	8B\L	di	.	.	8d\L	di	4g/	in-
.	.	8B\J	lo	.	.	8e\J	lo	.	.
=88	=88	=88	=88	=88	=88	=88	=88	=88	=88
1r	.	4A/	suel-	4D/	in-	4f\	suel-	8a/L	di
.	.	.	.	.	.	.	.	8b/J	lo
.	.	4G/	la	8E/L	di	4e\	la	4cc\	suel-
.	.	.	.	8F/J	lo	.	.	.	.
.	.	4r	.	4G/	suel-	4d\	in-	4b\	la
.	.	4G/	in-	4BB/	la	8e\L	di	4cc\	in-
.	.	.	.	.	.	8f\J	lo	.	.
=89	=89	=89	=89	=89	=89	=89	=89	=89	=89
4r	.	8E/L	di	2r	.	4g\	suel-	8b\L	di
.	.	8E/J	lo	.	.	.	.	8cc\J	lo
4D\	es-	4A/	suel-	.	.	4f#\	la	2dd\	suel-
2E\	pian-	4G/	la	4r	.	4r	.	.	.
.	.	4r	.	4G/	es-	4g\	es-	4cc#\	la
=90	=90	=90	=90	=90	=90	=90	=90	=90	=90
2D\	ti	4r	.	2A/	pian-	2f#\	pian-	4r	.
.	.	4d\	es-	.	.	.	.	4dd\	es-
4r	.	2d\	pian-	4G/	ti	2g\	ti	2b\	pian-
4GG/	es-	.	.	4G/	es-	.	.	.	.
=91	=91	=91	=91	=91	=91	=91	=91	=91	=91
4.C/	pian-	4e\	ti	2G/	pian-	4r	.	2cc\	ti
.	.	4c\	es-	.	.	4e\	es-	.	.
8D\	.	.	.	.	.	.	.	.	.
8E\L	.	2B\	pian-	2G/	ti	4e\	pian-	4r	.
8F\J	.	.	.	.	.	.	.	.	.
4G\	.	.	.	.	.	4d\	ti	[4g/	es-
=92	=92	=92	=92	=92	=92	=92	=92	=92	=92
4C/	ti	2c\	ti	1r	.	4e\	es-	4g/]	.
4F\	es-	.	.	.	.	4f\	pian-	[4a/	pian-
2A\	pian-	2c\	es-	.	.	4.e\	.	8a\L]	.
.	.	.	.	.	.	.	.	8b\J	.
.	.	.	.	.	.	.	.	[4cc\	.
.	.	.	.	.	.	8f\	.	.	.
=93	=93	=93	=93	=93	=93	=93	=93	=93	=93
4G\	ti	2d\	pian-	4r	.	2g\	.	4cc\]	.
4GG/	es-	.	.	4D/	es-	.	.	4b\	ti
4.C/	pian-	4c\	ti	2E/	pian-	4g\	ti	4r	.
.	.	4G/	es-	.	.	4e\	es-	4cc\	es-
8BB/	.	.	.	.	.	.	.	.	.
=94	=94	=94	=94	=94	=94	=94	=94	=94	=94
1AA/	.	4.A/	pian-	4E/	ti	1e\	pian-	4.cc\	pian-
.	.	.	.	4E/	es-	.	.	.	.
.	.	8B\	.	.	.	.	.	8b\	.
.	.	2c\	.	[2A/	pian-	.	.	2a/	.
=95	=95	=95	=95	=95	=95	=95	=95	=95	=95
[1E\	ti.	[1B\	ti.	2A/]	.	[1e\	ti.	[1b\	ti.
.	.	.	.	4G#/	.	.	.	.	.
.	.	.	.	4F#/	.	.	.	.	.
=96	=96	=96	=96	=96	=96	=96	=96	=96	=96
1E\]	.	1B\]	.	1G#/	ti.	1e\]	.	1b\]	.
==	==	==	==	==	==	==	==	==	==
*-	*-	*-	*-	*-	*-	*-	*-	*-	*-
